;FLAVOR:Marlin
;TIME:1325
;Filament used: 0.580707m
;Layer height: 0.2
;MINX:76.16
;MINY:68.059
;MINZ:0.2
;MAXX:103.841
;MAXY:111.94
;MAXZ:24.4
;Generated with Cura_SteamEngine 4.11.0
M104 S228
M105
M109 S228
M82 ;absolute extrusion mode
G28 ; home all axes
 M117 Purge extruder
 G92 E0 ; reset extruder
 G1 Z1.0 F3000 ; move z up little to prevent scratching of surface
 G1 X2 Y20 Z0.3 F5000.0 ; move to start-line position
 G1 X2 Y175.0 Z0.3 F1500.0 E15 ; draw 1st line
 G1 X2 Y175.0 Z0.4 F5000.0 ; move to side a little
 G1 X2 Y20 Z0.4 F1500.0 E30 ; draw 2nd line
 G92 E0 ; reset extruder
 G1 Z1.0 F3000 ; move z up little to prevent scratching of surface
G92 E0
G92 E0
G1 F2400 E-1
;LAYER_COUNT:120
;LAYER:0
M107
G1 F240 Z0.6
G0 F6000 X79.367 Y71.635 Z0.6
;TYPE:SKIRT
G1 F240 Z0.2
G1 F2400 E0
G1 F1200 X80.059 Y70.969 E0.03514
G1 X80.805 Y70.362 E0.07033
G1 X81.598 Y69.82 E0.10547
G1 X82.433 Y69.346 E0.1406
G1 X83.305 Y68.943 E0.17574
G1 X84.207 Y68.613 E0.21088
G1 X85.134 Y68.36 E0.24604
G1 X86.078 Y68.185 E0.28116
G1 X87.372 Y68.074 E0.32868
G1 X87.68 Y68.065 E0.33995
G1 X88.014 Y68.06 E0.35217
G1 X91.633 Y68.059 E0.48458
G1 X92.467 Y68.07 E0.51509
G1 X93.426 Y68.125 E0.55024
G1 X94.377 Y68.259 E0.58537
G1 X95.314 Y68.472 E0.62053
G1 X96.23 Y68.762 E0.65568
G1 X97.118 Y69.127 E0.69081
G1 X97.974 Y69.565 E0.72599
G1 X98.789 Y70.072 E0.7611
G1 X99.56 Y70.646 E0.79627
G1 X100.28 Y71.282 E0.83142
G1 X100.945 Y71.975 E0.86656
G1 X101.55 Y72.721 E0.9017
G1 X102.091 Y73.515 E0.93685
G1 X102.564 Y74.351 E0.97199
G1 X102.965 Y75.224 E1.00714
G1 X103.293 Y76.127 E1.04229
G1 X103.545 Y77.054 E1.07744
G1 X103.718 Y77.999 E1.11258
G1 X103.826 Y79.265 E1.15907
G1 X103.836 Y79.6 E1.17133
G1 X103.841 Y79.945 E1.18396
G1 X103.839 Y99.81 E1.91074
G1 X103.83 Y100.533 E1.93719
G1 X103.778 Y101.492 E1.97233
G1 X103.647 Y102.443 E2.00745
G1 X103.436 Y103.381 E2.04263
G1 X103.149 Y104.297 E2.07775
G1 X102.786 Y105.187 E2.11291
G1 X102.351 Y106.043 E2.14804
G1 X101.846 Y106.86 E2.18318
G1 X101.274 Y107.633 E2.21837
G1 X100.641 Y108.355 E2.2535
G1 X99.949 Y109.021 E2.28863
G1 X99.205 Y109.629 E2.32379
G1 X98.413 Y110.172 E2.35892
G1 X97.578 Y110.647 E2.39407
G1 X96.706 Y111.051 E2.42923
G1 X95.804 Y111.381 E2.46437
G1 X95.082 Y111.586 E2.49183
G1 X94.141 Y111.78 E2.52698
G1 X93.187 Y111.896 E2.56214
G1 X92.609 Y111.926 E2.58331
G1 X92.291 Y111.935 E2.59495
G1 X91.965 Y111.94 E2.60688
G1 X88.258 Y111.939 E2.74251
G1 X87.56 Y111.93 E2.76805
G1 X86.601 Y111.878 E2.80318
G1 X85.649 Y111.746 E2.83835
G1 X84.712 Y111.535 E2.87349
G1 X83.796 Y111.247 E2.90862
G1 X82.906 Y110.884 E2.94378
G1 X82.05 Y110.448 E2.97893
G1 X81.233 Y109.943 E3.01407
G1 X80.461 Y109.371 E3.04922
G1 X79.74 Y108.737 E3.08435
G1 X79.073 Y108.046 E3.11948
G1 X78.466 Y107.301 E3.15464
G1 X77.924 Y106.508 E3.18979
G1 X77.449 Y105.673 E3.22493
G1 X77.045 Y104.801 E3.26009
G1 X76.715 Y103.899 E3.29523
G1 X76.461 Y102.973 E3.33036
G1 X76.286 Y102.028 E3.36552
G1 X76.173 Y100.703 E3.41418
G1 X76.164 Y100.37 E3.42636
G1 X76.16 Y100.058 E3.43778
G1 X76.161 Y80.122 E4.16716
G1 X76.17 Y79.454 E4.1916
G1 X76.223 Y78.494 E4.22678
G1 X76.355 Y77.543 E4.26191
G1 X76.567 Y76.606 E4.29705
G1 X76.855 Y75.689 E4.33222
G1 X77.219 Y74.8 E4.36737
G1 X77.655 Y73.944 E4.40251
G1 X78.161 Y73.128 E4.43764
G1 X78.733 Y72.356 E4.47279
G1 X79.367 Y71.635 E4.50792
G0 F6000 X79.799 Y71.822
G1 F1200 X80.488 Y71.179 E4.5424
G1 X81.229 Y70.597 E4.57687
G1 X82.016 Y70.08 E4.61132
G1 X82.845 Y69.631 E4.64581
G1 X83.709 Y69.255 E4.68029
G1 X84.601 Y68.953 E4.71474
G1 X85.516 Y68.728 E4.74922
G1 X86.446 Y68.581 E4.78366
G1 X87.385 Y68.514 E4.81811
G1 X87.693 Y68.505 E4.82938
G1 X88.014 Y68.5 E4.84113
G1 X91.633 Y68.499 E4.97353
G1 X92.46 Y68.51 E5.00379
G1 X93.401 Y68.565 E5.03828
G1 X94.334 Y68.699 E5.07276
G1 X95.251 Y68.911 E5.1072
G1 X96.148 Y69.201 E5.14169
G1 X97.017 Y69.565 E5.17616
G1 X97.851 Y70.002 E5.2106
G1 X98.646 Y70.508 E5.24508
G1 X99.395 Y71.08 E5.27956
G1 X100.093 Y71.713 E5.31404
G1 X100.734 Y72.403 E5.34849
G1 X101.315 Y73.145 E5.38297
G1 X101.83 Y73.933 E5.41741
G1 X102.277 Y74.763 E5.4519
G1 X102.652 Y75.627 E5.48636
G1 X102.953 Y76.52 E5.52084
G1 X103.176 Y77.435 E5.5553
G1 X103.321 Y78.366 E5.58977
G1 X103.386 Y79.278 E5.62322
G1 X103.396 Y79.613 E5.63548
G1 X103.401 Y79.945 E5.64763
G1 X103.399 Y99.804 E6.37419
G1 X103.39 Y100.527 E6.40065
G1 X103.338 Y101.468 E6.43513
G1 X103.207 Y102.401 E6.4696
G1 X102.997 Y103.319 E6.50405
G1 X102.71 Y104.217 E6.53854
G1 X102.348 Y105.086 E6.57298
G1 X101.914 Y105.922 E6.60745
G1 X101.41 Y106.718 E6.64192
G1 X100.84 Y107.469 E6.67641
G1 X100.209 Y108.168 E6.71086
G1 X99.521 Y108.812 E6.74534
G1 X98.78 Y109.394 E6.77981
G1 X97.993 Y109.912 E6.81428
G1 X97.165 Y110.362 E6.84876
G1 X96.302 Y110.739 E6.88322
G1 X94.975 Y111.16 E6.93415
G1 X94.052 Y111.349 E6.96862
G1 X93.117 Y111.46 E7.00307
G1 X92.597 Y111.487 E7.02212
G1 X92.279 Y111.496 E7.03376
G1 X91.965 Y111.5 E7.04525
G1 X88.264 Y111.499 E7.18065
G1 X87.566 Y111.49 E7.20619
G1 X86.625 Y111.438 E7.24067
G1 X85.692 Y111.306 E7.27515
G1 X84.774 Y111.096 E7.3096
G1 X83.877 Y110.808 E7.34407
G1 X83.007 Y110.446 E7.37854
G1 X82.171 Y110.011 E7.41302
G1 X81.376 Y109.507 E7.44746
G1 X80.625 Y108.937 E7.48195
G1 X79.926 Y108.305 E7.51643
G1 X79.283 Y107.617 E7.55089
G1 X78.701 Y106.876 E7.58536
G1 X78.183 Y106.089 E7.61983
G1 X77.734 Y105.261 E7.65429
G1 X77.357 Y104.397 E7.68878
G1 X77.055 Y103.505 E7.72323
G1 X76.829 Y102.591 E7.75768
G1 X76.682 Y101.66 E7.79216
G1 X76.613 Y100.691 E7.8277
G1 X76.604 Y100.358 E7.83989
G1 X76.6 Y100.058 E7.85087
G1 X76.601 Y80.127 E8.58007
G1 X76.61 Y79.459 E8.60451
G1 X76.663 Y78.519 E8.63895
G1 X76.795 Y77.586 E8.67343
G1 X77.006 Y76.668 E8.70789
G1 X77.294 Y75.771 E8.74236
G1 X77.657 Y74.901 E8.77685
G1 X78.092 Y74.066 E8.8113
G1 X78.597 Y73.27 E8.84578
G1 X79.167 Y72.52 E8.88025
G1 X79.799 Y71.822 E8.9147
G0 F6000 X80.23 Y72.013
G1 F1200 X80.916 Y71.394 E8.9485
G1 X81.652 Y70.837 E8.98227
G1 X82.434 Y70.346 E9.01606
G1 X83.255 Y69.924 E9.04983
G1 X84.11 Y69.575 E9.08362
G1 X84.991 Y69.301 E9.11737
G1 X85.894 Y69.105 E9.15118
G1 X86.809 Y68.987 E9.18493
G1 X87.398 Y68.954 E9.20651
G1 X87.706 Y68.945 E9.21779
G1 X88.014 Y68.94 E9.22906
G1 X91.633 Y68.939 E9.36146
G1 X92.454 Y68.95 E9.3915
G1 X93.375 Y69.004 E9.42526
G1 X94.289 Y69.138 E9.45905
G1 X95.187 Y69.35 E9.49281
G1 X96.064 Y69.639 E9.52659
G1 X96.913 Y70.003 E9.56039
G1 X97.727 Y70.439 E9.59417
G1 X98.5 Y70.944 E9.62796
G1 X99.226 Y71.513 E9.6617
G1 X99.901 Y72.144 E9.69551
G1 X100.518 Y72.83 E9.72927
G1 X101.074 Y73.568 E9.76307
G1 X101.564 Y74.35 E9.79683
G1 X101.984 Y75.172 E9.83061
G1 X102.331 Y76.028 E9.8644
G1 X102.604 Y76.91 E9.89818
G1 X102.799 Y77.812 E9.93194
G1 X102.915 Y78.728 E9.96572
G1 X102.946 Y79.291 E9.98635
G1 X102.956 Y79.626 E9.99861
G1 X102.961 Y79.945 E10.01029
G1 X102.959 Y99.799 E10.73667
G1 X102.95 Y100.522 E10.76312
G1 X102.899 Y101.444 E10.7969
G1 X102.768 Y102.357 E10.83065
G1 X102.558 Y103.257 E10.86446
G1 X102.271 Y104.134 E10.89822
G1 X101.91 Y104.984 E10.93201
G1 X101.476 Y105.799 E10.96579
G1 X100.974 Y106.573 E10.99954
G1 X100.406 Y107.301 E11.03333
G1 X99.778 Y107.978 E11.06711
G1 X99.093 Y108.597 E11.10089
G1 X98.357 Y109.155 E11.13468
G1 X97.576 Y109.647 E11.16845
G1 X96.755 Y110.069 E11.20222
G1 X95.901 Y110.419 E11.23599
G1 X94.868 Y110.733 E11.27549
G1 X93.964 Y110.918 E11.30925
G1 X93.047 Y111.024 E11.34302
G1 X92.585 Y111.047 E11.35995
G1 X92.267 Y111.056 E11.37159
G1 X91.965 Y111.06 E11.38264
G1 X88.27 Y111.059 E11.51782
G1 X87.572 Y111.05 E11.54336
G1 X86.65 Y110.998 E11.57715
G1 X85.736 Y110.867 E11.61093
G1 X84.837 Y110.657 E11.64471
G1 X83.959 Y110.37 E11.6785
G1 X83.11 Y110.008 E11.71227
G1 X82.295 Y109.574 E11.74605
G1 X81.521 Y109.071 E11.77982
G1 X80.793 Y108.503 E11.8136
G1 X80.117 Y107.874 E11.84739
G1 X79.498 Y107.189 E11.88117
G1 X78.941 Y106.453 E11.91493
G1 X78.449 Y105.672 E11.94871
G1 X78.027 Y104.851 E11.98248
G1 X77.677 Y103.996 E12.01628
G1 X77.403 Y103.115 E12.05003
G1 X77.206 Y102.213 E12.08381
G1 X77.088 Y101.297 E12.1176
G1 X77.053 Y100.679 E12.14025
G1 X77.044 Y100.346 E12.15244
G1 X77.04 Y100.058 E12.16297
G1 X77.041 Y80.133 E12.89195
G1 X77.05 Y79.465 E12.9164
G1 X77.102 Y78.544 E12.95014
G1 X77.234 Y77.63 E12.98393
G1 X77.445 Y76.731 E13.01772
G1 X77.732 Y75.854 E13.05148
G1 X78.095 Y75.004 E13.08529
G1 X78.529 Y74.19 E13.11904
G1 X79.033 Y73.416 E13.15283
G1 X79.601 Y72.688 E13.18662
G1 X80.23 Y72.013 E13.22037
G0 F6000 X80.035 Y72.86
G1 F1200 X80.661 Y72.208 E13.25344
G1 X81.342 Y71.614 E13.2865
G1 X82.074 Y71.083 E13.31959
G1 X82.849 Y70.618 E13.35265
G1 X83.663 Y70.224 E13.38574
G1 X84.508 Y69.903 E13.41881
G1 X85.378 Y69.658 E13.45188
G1 X86.267 Y69.491 E13.48497
G1 X87.41 Y69.393 E13.52694
G1 X87.718 Y69.384 E13.53822
G1 X88.014 Y69.38 E13.54905
G1 X91.633 Y69.379 E13.68145
G1 X92.447 Y69.39 E13.71124
G1 X93.349 Y69.444 E13.7443
G1 X94.244 Y69.577 E13.7774
G1 X95.122 Y69.789 E13.81045
G1 X95.979 Y70.078 E13.84354
G1 X96.807 Y70.441 E13.87661
G1 X97.599 Y70.876 E13.90967
G1 X98.35 Y71.379 E13.94274
G1 X99.054 Y71.947 E13.97584
G1 X99.705 Y72.574 E14.00891
G1 X100.297 Y73.257 E14.04197
G1 X100.827 Y73.989 E14.07504
G1 X101.29 Y74.765 E14.1081
G1 X101.683 Y75.58 E14.1412
G1 X102.002 Y76.425 E14.17425
G1 X102.246 Y77.296 E14.20734
G1 X102.411 Y78.185 E14.24042
G1 X102.506 Y79.304 E14.28151
G1 X102.516 Y79.639 E14.29377
G1 X102.521 Y79.945 E14.30497
G1 X102.519 Y99.793 E15.03113
G1 X102.51 Y100.516 E15.05758
G1 X102.459 Y101.419 E15.09067
G1 X102.328 Y102.313 E15.12373
G1 X102.119 Y103.193 E15.15682
G1 X101.833 Y104.05 E15.18987
G1 X101.472 Y104.879 E15.22296
G1 X101.039 Y105.673 E15.25604
G1 X100.538 Y106.425 E15.2891
G1 X99.972 Y107.13 E15.32218
G1 X99.347 Y107.783 E15.35525
G1 X98.666 Y108.377 E15.38831
G1 X97.935 Y108.909 E15.42139
G1 X97.16 Y109.375 E15.45447
G1 X96.347 Y109.77 E15.48754
G1 X95.502 Y110.091 E15.52061
G1 X94.762 Y110.306 E15.54881
G1 X93.876 Y110.486 E15.58189
G1 X92.572 Y110.607 E15.6298
G1 X92.254 Y110.616 E15.64144
G1 X91.965 Y110.62 E15.65201
G1 X88.275 Y110.619 E15.78702
G1 X87.577 Y110.61 E15.81255
G1 X86.675 Y110.559 E15.84561
G1 X85.78 Y110.427 E15.87871
G1 X84.901 Y110.218 E15.91176
G1 X84.044 Y109.931 E15.94483
G1 X83.215 Y109.57 E15.97791
G1 X82.421 Y109.137 E16.011
G1 X81.669 Y108.635 E16.04408
G1 X80.964 Y108.069 E16.07715
G1 X80.312 Y107.443 E16.11022
G1 X79.718 Y106.762 E16.14328
G1 X79.186 Y106.031 E16.17636
G1 X78.721 Y105.256 E16.20943
G1 X78.326 Y104.443 E16.2425
G1 X78.005 Y103.598 E16.27557
G1 X77.76 Y102.728 E16.30864
G1 X77.592 Y101.839 E16.34174
G1 X77.493 Y100.667 E16.38477
G1 X77.484 Y100.334 E16.39696
G1 X77.48 Y100.058 E16.40706
G1 X77.481 Y80.139 E17.13582
G1 X77.49 Y79.471 E17.16026
G1 X77.542 Y78.569 E17.19331
G1 X77.674 Y77.674 E17.22641
G1 X77.884 Y76.795 E17.25948
G1 X78.171 Y75.938 E17.29254
G1 X78.533 Y75.11 E17.3256
G1 X78.966 Y74.316 E17.35869
G1 X79.468 Y73.564 E17.39177
G1 X80.035 Y72.86 E17.42484
G1 F2400 E16.42484
G1 F240 Z0.6
;MESH:?????????1.stl
G0 F6000 X91.2 Y99.3 Z0.6
;TYPE:WALL-INNER
G1 F240 Z0.2
G1 F2400 E17.42484
G1 F1200 X88.8 Y99.3 E17.51265
G1 X88.8 Y80.7 E18.19315
G1 X90.982 Y80.699 E18.27298
G1 X91.201 Y80.699 E18.281
G1 X91.201 Y80.918 E18.28618
G1 X91.2 Y99.3 E18.95871
G0 F6000 X91.64 Y99.74
G1 F1200 X88.36 Y99.74 E19.07871
G1 X88.36 Y80.26 E19.79141
G1 X91.422 Y80.259 E19.90344
G1 X91.641 Y80.259 E19.91145
G1 X91.641 Y80.478 E19.91663
G1 X91.64 Y99.74 E20.62136
G0 F6000 X92.08 Y100.18
;TYPE:WALL-OUTER
G1 F1200 X87.92 Y100.18 E20.77355
G1 X87.92 Y79.82 E21.51845
G1 X92.081 Y79.819 E21.67068
G1 X92.08 Y100.18 E22.41561
G1 F2400 E21.41561
G1 F240 Z0.6
G0 F6000 X90.77 Y98.87 Z0.6
;TYPE:SKIN
G1 F240 Z0.2
G1 F2400 E22.41561
G1 F1200 X89.23 Y98.87 E22.47196
G1 X89.23 Y81.13 E23.121
G1 X90.771 Y81.129 E23.17737
G1 X90.77 Y98.87 E23.82645
G0 F6000 X89.981 Y98.693
G1 F1200 X89.405 Y98.116 E23.85628
G0 F6000 X89.405 Y97.494
G1 F1200 X90.594 Y98.683 E23.9178
G0 F6000 X90.594 Y98.061
G1 F1200 X89.405 Y96.872 E23.97932
G0 F6000 X89.405 Y96.249
G1 F1200 X90.594 Y97.439 E24.04086
G0 F6000 X90.594 Y96.817
G1 F1200 X89.405 Y95.627 E24.10241
G0 F6000 X89.405 Y95.005
G1 F1200 X90.594 Y96.194 E24.16393
G0 F6000 X90.594 Y95.572
G1 F1200 X89.405 Y94.383 E24.22545
G0 F6000 X89.405 Y93.76
G1 F1200 X90.594 Y94.95 E24.28699
G0 F6000 X90.594 Y94.328
G1 F1200 X89.405 Y93.138 E24.34854
G0 F6000 X89.405 Y92.516
G1 F1200 X90.594 Y93.705 E24.41006
G0 F6000 X90.594 Y93.083
G1 F1200 X89.405 Y91.894 E24.47158
G0 F6000 X89.405 Y91.271
G1 F1200 X90.594 Y92.461 E24.53312
G0 F6000 X90.594 Y91.839
G1 F1200 X89.405 Y90.649 E24.59467
G0 F6000 X89.405 Y90.027
G1 F1200 X90.594 Y91.216 E24.65619
G0 F6000 X90.594 Y90.594
G1 F1200 X89.405 Y89.405 E24.71771
G0 F6000 X89.405 Y88.782
G1 F1200 X90.594 Y89.972 E24.77925
G0 F6000 X90.594 Y89.35
G1 F1200 X89.405 Y88.16 E24.8408
G0 F6000 X89.405 Y87.538
G1 F1200 X90.594 Y88.727 E24.90232
G0 F6000 X90.594 Y88.105
G1 F1200 X89.405 Y86.916 E24.96384
G0 F6000 X89.405 Y86.293
G1 F1200 X90.594 Y87.483 E25.02538
G0 F6000 X90.594 Y86.86
G1 F1200 X89.405 Y85.671 E25.0869
G0 F6000 X89.405 Y85.049
G1 F1200 X90.594 Y86.238 E25.14842
G0 F6000 X90.594 Y85.616
G1 F1200 X89.405 Y84.427 E25.20994
G0 F6000 X89.405 Y83.804
G1 F1200 X90.594 Y84.994 E25.27149
G0 F6000 X90.594 Y84.371
G1 F1200 X89.405 Y83.182 E25.33301
G0 F6000 X89.405 Y82.56
G1 F1200 X90.594 Y83.749 E25.39453
G0 F6000 X90.594 Y83.127
G1 F1200 X89.405 Y81.938 E25.45605
G0 F6000 X89.405 Y81.315
G1 F1200 X90.594 Y82.505 E25.51759
G0 F6000 X90.594 Y81.882
G1 F1200 X90.016 Y81.305 E25.54747
G1 F2400 E24.54747
G1 F240 Z0.6
;MESH:NONMESH
G0 F6000 X91.4 Y99.5 Z0.6
;TIME_ELAPSED:48.007638
;LAYER:1
M106 S85
;MESH:?????????1.stl
G0 F7500 X91.4 Y99.5 Z0.8
;TYPE:WALL-INNER
G1 F240 Z0.4
G1 F2400 E25.54747
G1 F1500 X88.6 Y99.5 E25.64991
G1 X88.6 Y80.5 E26.34505
G1 X91.182 Y80.499 E26.43952
G1 X91.401 Y80.499 E26.44753
G1 X91.401 Y80.718 E26.45271
G1 X91.4 Y99.5 E27.13988
G0 F7500 X91.84 Y99.94
G1 F1500 X88.16 Y99.94 E27.27451
G1 X88.16 Y80.06 E28.00184
G1 X91.622 Y80.059 E28.12851
G1 X91.841 Y80.059 E28.13652
G1 X91.841 Y80.278 E28.1417
G1 X91.84 Y99.94 E28.86106
G0 F7500 X92.28 Y100.38
;TYPE:WALL-OUTER
G1 F1500 X87.72 Y100.38 E29.02789
G1 X87.72 Y79.62 E29.78742
G1 X92.281 Y79.619 E29.95429
G1 X92.28 Y100.38 E30.71386
G1 F2400 E29.71386
G1 F240 Z0.8
G0 F7500 X90.97 Y99.07 Z0.8
;TYPE:SKIN
G1 F240 Z0.4
G1 F2400 E30.71386
G1 F1500 X89.03 Y99.07 E30.78483
G1 X89.03 Y80.93 E31.44851
G1 X90.971 Y80.929 E31.51952
G1 X90.97 Y99.07 E32.18323
G0 F7500 X90.272 Y98.893
G1 F1500 X90.793 Y98.371 E32.21021
G0 F7500 X90.793 Y97.749
G1 F1500 X89.649 Y98.893 E32.2694
G0 F7500 X89.205 Y98.714
G1 F1500 X90.793 Y97.126 E32.35157
G0 F7500 X90.793 Y96.504
G1 F1500 X89.205 Y98.092 E32.43373
G0 F7500 X89.205 Y97.47
G1 F1500 X90.793 Y95.882 E32.5159
G0 F7500 X90.793 Y95.26
G1 F1500 X89.205 Y96.848 E32.59806
G0 F7500 X89.205 Y96.225
G1 F1500 X90.793 Y94.637 E32.68022
G0 F7500 X90.793 Y94.015
G1 F1500 X89.205 Y95.603 E32.76239
G0 F7500 X89.205 Y94.981
G1 F1500 X90.793 Y93.393 E32.84455
G0 F7500 X90.793 Y92.77
G1 F1500 X89.205 Y94.359 E32.92674
G0 F7500 X89.205 Y93.736
G1 F1500 X90.793 Y92.148 E33.00891
G0 F7500 X90.793 Y91.526
G1 F1500 X89.205 Y93.114 E33.09107
G0 F7500 X89.205 Y92.492
G1 F1500 X90.793 Y90.904 E33.17324
G0 F7500 X90.793 Y90.281
G1 F1500 X89.205 Y91.87 E33.25543
G0 F7500 X89.205 Y91.247
G1 F1500 X90.793 Y89.659 E33.33759
G0 F7500 X90.793 Y89.037
G1 F1500 X89.205 Y90.625 E33.41975
